icons/modern/recycling-symbol.svg

<svg width="32" height="32" viewBox="0 0 32 32" fill="none" xmlns="http://www.w3.org/2000/svg">
<g filter="url(#filter0_ii_18590_1900)">
<path d="M7.93178 22.187L5.82178 27.677L6.20178 28.107L6.84178 28.327H13.9418C14.5518 28.327 15.0518 27.827 15.0518 27.217V23.287C15.0518 22.677 14.5518 22.177 13.9418 22.177H7.93178V22.187Z" fill="url(#paint0_linear_18590_1900)"/>
</g>
<g filter="url(#filter1_ii_18590_1900)">
<path d="M24.0118 22.857L29.8618 22.197L30.0618 21.657L29.9618 20.977L26.6918 14.667C26.4118 14.127 25.7418 13.907 25.1918 14.197L21.7018 16.007C21.1618 16.287 20.9418 16.957 21.2318 17.507L24.0118 22.857Z" fill="url(#paint1_linear_18590_1900)"/>
</g>
<g filter="url(#filter2_ii_18590_1900)">
<path d="M13.0318 3.71704L16.5518 8.43704L13.3418 13.527C13.0118 14.047 12.3318 14.207 11.8118 13.877L8.4918 11.787C7.9718 11.457 7.8118 10.777 8.1418 10.257L11.9318 4.24704L12.4618 3.81704L13.0318 3.71704Z" fill="url(#paint2_linear_18590_1900)"/>
</g>
<g filter="url(#filter3_i_18590_1900)">
<path d="M11.8718 20.347L10.2118 14.027C10.1318 13.707 9.79176 13.537 9.48176 13.647L3.34176 15.887C2.89176 16.057 2.85176 16.677 3.27176 16.907L4.19971 17.3972C4.27274 17.4358 4.30084 17.5262 4.26258 17.5994L2.49176 20.987C2.05176 21.827 2.09176 22.827 2.60176 23.627L4.80176 27.107C5.28176 27.877 6.13176 28.337 7.04176 28.337C6.55176 28.337 6.16176 27.947 6.16176 27.457C6.16176 27.307 6.20176 27.167 6.26176 27.047L9.73211 20.4396C9.7706 20.3663 9.86115 20.3381 9.93447 20.3765L11.0818 20.977C11.5018 21.207 11.9918 20.807 11.8718 20.347Z" fill="url(#paint3_linear_18590_1900)"/>
<path d="M11.8718 20.347L10.2118 14.027C10.1318 13.707 9.79176 13.537 9.48176 13.647L3.34176 15.887C2.89176 16.057 2.85176 16.677 3.27176 16.907L4.19971 17.3972C4.27274 17.4358 4.30084 17.5262 4.26258 17.5994L2.49176 20.987C2.05176 21.827 2.09176 22.827 2.60176 23.627L4.80176 27.107C5.28176 27.877 6.13176 28.337 7.04176 28.337C6.55176 28.337 6.16176 27.947 6.16176 27.457C6.16176 27.307 6.20176 27.167 6.26176 27.047L9.73211 20.4396C9.7706 20.3663 9.86115 20.3381 9.93447 20.3765L11.0818 20.977C11.5018 21.207 11.9918 20.807 11.8718 20.347Z" fill="url(#paint4_linear_18590_1900)"/>
<path d="M11.8718 20.347L10.2118 14.027C10.1318 13.707 9.79176 13.537 9.48176 13.647L3.34176 15.887C2.89176 16.057 2.85176 16.677 3.27176 16.907L4.19971 17.3972C4.27274 17.4358 4.30084 17.5262 4.26258 17.5994L2.49176 20.987C2.05176 21.827 2.09176 22.827 2.60176 23.627L4.80176 27.107C5.28176 27.877 6.13176 28.337 7.04176 28.337C6.55176 28.337 6.16176 27.947 6.16176 27.457C6.16176 27.307 6.20176 27.167 6.26176 27.047L9.73211 20.4396C9.7706 20.3663 9.86115 20.3381 9.93447 20.3765L11.0818 20.977C11.5018 21.207 11.9918 20.807 11.8718 20.347Z" fill="url(#paint5_linear_18590_1900)"/>
</g>
<g filter="url(#filter4_ii_18590_1900)">
<path d="M29.8818 20.827C30.1018 21.257 29.9418 21.787 29.5018 22.017C29.3718 22.087 29.2318 22.117 29.0918 22.117L21.4818 22.077L21.4918 20.627C21.4918 20.147 20.9218 19.887 20.5618 20.217L15.7118 24.597C15.4718 24.817 15.4718 25.197 15.7118 25.417L20.5318 29.827C20.8918 30.157 21.4618 29.907 21.4618 29.417V28.217L25.4418 28.237C26.3818 28.237 27.2618 27.747 27.7418 26.927L29.8218 23.377C30.2818 22.597 30.3018 21.637 29.8818 20.827Z" fill="url(#paint6_linear_18590_1900)"/>
</g>
<g filter="url(#filter5_ii_18590_1900)">
<path d="M22.4618 7.91698L23.5018 7.31698C23.9218 7.07698 24.4318 7.43698 24.3318 7.89698L22.9618 14.287C22.8918 14.607 22.5618 14.797 22.2518 14.697L16.0218 12.727C15.5618 12.587 15.4918 11.957 15.9118 11.717L17.1618 10.987L13.3418 4.40698C13.2718 4.28698 13.1718 4.18698 13.0518 4.10698C12.6418 3.85698 12.1018 3.97698 11.8418 4.38698C12.3218 3.62698 13.1618 3.15698 14.0718 3.15698H18.1818C19.1218 3.15698 20.0018 3.65698 20.4718 4.47698L22.4618 7.91698Z" fill="url(#paint7_linear_18590_1900)"/>
</g>
<defs>
<filter id="filter0_ii_18590_1900" x="5.57178" y="21.927" width="9.47998" height="6.65002" filterUnits="userSpaceOnUse" color-interpolation-filters="sRGB">
<feFlood flood-opacity="0" result="BackgroundImageFix"/>
<feBlend mode="normal" in="SourceGraphic" in2="BackgroundImageFix" result="shape"/>
<feColorMatrix in="SourceAlpha" type="matrix" values="0 0 0 0 0 0 0 0 0 0 0 0 0 0 0 0 0 0 127 0" result="hardAlpha"/>
<feOffset dx="-0.25" dy="0.25"/>
<feGaussianBlur stdDeviation="0.25"/>
<feComposite in2="hardAlpha" operator="arithmetic" k2="-1" k3="1"/>
<feColorMatrix type="matrix" values="0 0 0 0 0.207843 0 0 0 0 0.541176 0 0 0 0 0.439216 0 0 0 1 0"/>
<feBlend mode="normal" in2="shape" result="effect1_innerShadow_18590_1900"/>
<feColorMatrix in="SourceAlpha" type="matrix" values="0 0 0 0 0 0 0 0 0 0 0 0 0 0 0 0 0 0 127 0" result="hardAlpha"/>
<feOffset dy="-0.25"/>
<feGaussianBlur stdDeviation="0.25"/>
<feComposite in2="hardAlpha" operator="arithmetic" k2="-1" k3="1"/>
<feColorMatrix type="matrix" values="0 0 0 0 0.290196 0 0 0 0 0.372549 0 0 0 0 0.556863 0 0 0 1 0"/>
<feBlend mode="normal" in2="effect1_innerShadow_18590_1900" result="effect2_innerShadow_18590_1900"/>
</filter>
<filter id="filter1_ii_18590_1900" x="20.8533" y="14.0686" width="9.70844" height="8.78845" filterUnits="userSpaceOnUse" color-interpolation-filters="sRGB">
<feFlood flood-opacity="0" result="BackgroundImageFix"/>
<feBlend mode="normal" in="SourceGraphic" in2="BackgroundImageFix" result="shape"/>
<feColorMatrix in="SourceAlpha" type="matrix" values="0 0 0 0 0 0 0 0 0 0 0 0 0 0 0 0 0 0 127 0" result="hardAlpha"/>
<feOffset dx="-0.25"/>
<feGaussianBlur stdDeviation="0.25"/>
<feComposite in2="hardAlpha" operator="arithmetic" k2="-1" k3="1"/>
<feColorMatrix type="matrix" values="0 0 0 0 0.333333 0 0 0 0 0.65098 0 0 0 0 0.545098 0 0 0 1 0"/>
<feBlend mode="normal" in2="shape" result="effect1_innerShadow_18590_1900"/>
<feColorMatrix in="SourceAlpha" type="matrix" values="0 0 0 0 0 0 0 0 0 0 0 0 0 0 0 0 0 0 127 0" result="hardAlpha"/>
<feOffset dx="0.5"/>
<feGaussianBlur stdDeviation="0.25"/>
<feComposite in2="hardAlpha" operator="arithmetic" k2="-1" k3="1"/>
<feColorMatrix type="matrix" values="0 0 0 0 0.219608 0 0 0 0 0.376471 0 0 0 0 0.388235 0 0 0 1 0"/>
<feBlend mode="normal" in2="effect1_innerShadow_18590_1900" result="effect2_innerShadow_18590_1900"/>
</filter>
<filter id="filter2_ii_18590_1900" x="7.96979" y="3.46704" width="8.83203" height="10.582" filterUnits="userSpaceOnUse" color-interpolation-filters="sRGB">
<feFlood flood-opacity="0" result="BackgroundImageFix"/>
<feBlend mode="normal" in="SourceGraphic" in2="BackgroundImageFix" result="shape"/>
<feColorMatrix in="SourceAlpha" type="matrix" values="0 0 0 0 0 0 0 0 0 0 0 0 0 0 0 0 0 0 127 0" result="hardAlpha"/>
<feOffset dx="0.25"/>
<feGaussianBlur stdDeviation="0.25"/>
<feComposite in2="hardAlpha" operator="arithmetic" k2="-1" k3="1"/>
<feColorMatrix type="matrix" values="0 0 0 0 0.152941 0 0 0 0 0.4 0 0 0 0 0.337255 0 0 0 1 0"/>
<feBlend mode="normal" in2="shape" result="effect1_innerShadow_18590_1900"/>
<feColorMatrix in="SourceAlpha" type="matrix" values="0 0 0 0 0 0 0 0 0 0 0 0 0 0 0 0 0 0 127 0" result="hardAlpha"/>
<feOffset dy="-0.25"/>
<feGaussianBlur stdDeviation="0.25"/>
<feComposite in2="hardAlpha" operator="arithmetic" k2="-1" k3="1"/>
<feColorMatrix type="matrix" values="0 0 0 0 0.290196 0 0 0 0 0.352941 0 0 0 0 0.478431 0 0 0 1 0"/>
<feBlend mode="normal" in2="effect1_innerShadow_18590_1900" result="effect2_innerShadow_18590_1900"/>
</filter>
<filter id="filter3_i_18590_1900" x="2.18829" y="13.6135" width="9.9519" height="14.7235" filterUnits="userSpaceOnUse" color-interpolation-filters="sRGB">
<feFlood flood-opacity="0" result="BackgroundImageFix"/>
<feBlend mode="normal" in="SourceGraphic" in2="BackgroundImageFix" result="shape"/>
<feColorMatrix in="SourceAlpha" type="matrix" values="0 0 0 0 0 0 0 0 0 0 0 0 0 0 0 0 0 0 127 0" result="hardAlpha"/>
<feOffset dx="0.25"/>
<feGaussianBlur stdDeviation="0.25"/>
<feComposite in2="hardAlpha" operator="arithmetic" k2="-1" k3="1"/>
<feColorMatrix type="matrix" values="0 0 0 0 0.270588 0 0 0 0 0.686275 0 0 0 0 0.435294 0 0 0 1 0"/>
<feBlend mode="normal" in2="shape" result="effect1_innerShadow_18590_1900"/>
</filter>
<filter id="filter4_ii_18590_1900" x="15.5318" y="19.8192" width="14.6507" height="10.3077" filterUnits="userSpaceOnUse" color-interpolation-filters="sRGB">
<feFlood flood-opacity="0" result="BackgroundImageFix"/>
<feBlend mode="normal" in="SourceGraphic" in2="BackgroundImageFix" result="shape"/>
<feColorMatrix in="SourceAlpha" type="matrix" values="0 0 0 0 0 0 0 0 0 0 0 0 0 0 0 0 0 0 127 0" result="hardAlpha"/>
<feOffset dy="-0.25"/>
<feGaussianBlur stdDeviation="0.25"/>
<feComposite in2="hardAlpha" operator="arithmetic" k2="-1" k3="1"/>
<feColorMatrix type="matrix" values="0 0 0 0 0.376471 0 0 0 0 0.67451 0 0 0 0 0.678431 0 0 0 1 0"/>
<feBlend mode="normal" in2="shape" result="effect1_innerShadow_18590_1900"/>
<feColorMatrix in="SourceAlpha" type="matrix" values="0 0 0 0 0 0 0 0 0 0 0 0 0 0 0 0 0 0 127 0" result="hardAlpha"/>
<feOffset dy="0.15"/>
<feGaussianBlur stdDeviation="0.25"/>
<feComposite in2="hardAlpha" operator="arithmetic" k2="-1" k3="1"/>
<feColorMatrix type="matrix" values="0 0 0 0 0.25098 0 0 0 0 0.733333 0 0 0 0 0.458824 0 0 0 1 0"/>
<feBlend mode="normal" in2="effect1_innerShadow_18590_1900" result="effect2_innerShadow_18590_1900"/>
</filter>
<filter id="filter5_ii_18590_1900" x="11.8418" y="2.90698" width="12.7527" height="11.9668" filterUnits="userSpaceOnUse" color-interpolation-filters="sRGB">
<feFlood flood-opacity="0" result="BackgroundImageFix"/>
<feBlend mode="normal" in="SourceGraphic" in2="BackgroundImageFix" result="shape"/>
<feColorMatrix in="SourceAlpha" type="matrix" values="0 0 0 0 0 0 0 0 0 0 0 0 0 0 0 0 0 0 127 0" result="hardAlpha"/>
<feOffset dx="0.25" dy="-0.25"/>
<feGaussianBlur stdDeviation="0.375"/>
<feComposite in2="hardAlpha" operator="arithmetic" k2="-1" k3="1"/>
<feColorMatrix type="matrix" values="0 0 0 0 0.301961 0 0 0 0 0.705882 0 0 0 0 0.454902 0 0 0 1 0"/>
<feBlend mode="normal" in2="shape" result="effect1_innerShadow_18590_1900"/>
<feColorMatrix in="SourceAlpha" type="matrix" values="0 0 0 0 0 0 0 0 0 0 0 0 0 0 0 0 0 0 127 0" result="hardAlpha"/>
<feOffset dy="0.15"/>
<feGaussianBlur stdDeviation="0.25"/>
<feComposite in2="hardAlpha" operator="arithmetic" k2="-1" k3="1"/>
<feColorMatrix type="matrix" values="0 0 0 0 0.407843 0 0 0 0 0.94902 0 0 0 0 0.654902 0 0 0 1 0"/>
<feBlend mode="normal" in2="effect1_innerShadow_18590_1900" result="effect2_innerShadow_18590_1900"/>
</filter>
<linearGradient id="paint0_linear_18590_1900" x1="9.31329" y1="25.7195" x2="16.5008" y2="27.7195" gradientUnits="userSpaceOnUse">
<stop stop-color="#549F8D"/>
<stop offset="1" stop-color="#306B72"/>
</linearGradient>
<linearGradient id="paint1_linear_18590_1900" x1="28.3397" y1="22.3202" x2="24.5782" y2="14.3104" gradientUnits="userSpaceOnUse">
<stop stop-color="#1E6C52"/>
<stop offset="1" stop-color="#318270"/>
</linearGradient>
<linearGradient id="paint2_linear_18590_1900" x1="16.0008" y1="6.21948" x2="10.5008" y2="11.407" gradientUnits="userSpaceOnUse">
<stop offset="0.214801" stop-color="#2D5267"/>
<stop offset="1" stop-color="#2A6E67"/>
</linearGradient>
<linearGradient id="paint3_linear_18590_1900" x1="10.1518" y1="14.93" x2="4.62019" y2="26.5242" gradientUnits="userSpaceOnUse">
<stop stop-color="#4EDF9F"/>
<stop offset="1" stop-color="#4BD3A1"/>
</linearGradient>
<linearGradient id="paint4_linear_18590_1900" x1="4.62019" y1="28.337" x2="7.62939" y2="25.7719" gradientUnits="userSpaceOnUse">
<stop stop-color="#5BA48B"/>
<stop offset="1" stop-color="#44C89B" stop-opacity="0"/>
</linearGradient>
<linearGradient id="paint5_linear_18590_1900" x1="11.767" y1="19.4216" x2="11.1364" y2="19.5765" gradientUnits="userSpaceOnUse">
<stop offset="0.26328" stop-color="#63F5AD"/>
<stop offset="1" stop-color="#63F5AD" stop-opacity="0"/>
</linearGradient>
<linearGradient id="paint6_linear_18590_1900" x1="28.6052" y1="25.5507" x2="16.9667" y2="25.5507" gradientUnits="userSpaceOnUse">
<stop stop-color="#53E2A9"/>
<stop offset="1" stop-color="#4FD7A5"/>
</linearGradient>
<linearGradient id="paint7_linear_18590_1900" x1="22.8606" y1="13.6537" x2="16.9387" y2="3.71511" gradientUnits="userSpaceOnUse">
<stop stop-color="#53E2A9"/>
<stop offset="1" stop-color="#46D791"/>
</linearGradient>
</defs>
</svg>

<svg width="32" height="32" fill="none" xmlns="http://www.w3.org/2000/svg"><g filter="url(#a)"><path d="m7.932 22.187-2.11 5.49.38.43.64.22h7.1c.61 0 1.11-.5 1.11-1.11v-3.93c0-.61-.5-1.11-1.11-1.11h-6.01v.01Z" fill="url(#b)"/></g><g filter="url(#c)"><path d="m24.012 22.857 5.85-.66.2-.54-.1-.68-3.27-6.31c-.28-.54-.95-.76-1.5-.47l-3.49 1.81c-.54.28-.76.95-.47 1.5l2.78 5.35Z" fill="url(#d)"/></g><g filter="url(#e)"><path d="m13.032 3.717 3.52 4.72-3.21 5.09c-.33.52-1.01.68-1.53.35l-3.32-2.09c-.52-.33-.68-1.01-.35-1.53l3.79-6.01.53-.43.57-.1Z" fill="url(#f)"/></g><g filter="url(#g)"><path d="m11.872 20.347-1.66-6.32a.554.554 0 0 0-.73-.38l-6.14 2.24c-.45.17-.49.79-.07 1.02l.928.49a.15.15 0 0 1 .063.202l-1.771 3.388c-.44.84-.4 1.84.11 2.64l2.2 3.48c.48.77 1.33 1.23 2.24 1.23-.49 0-.88-.39-.88-.88 0-.15.04-.29.1-.41l3.47-6.607a.15.15 0 0 1 .202-.064l1.148.601c.42.23.91-.17.79-.63Z" fill="url(#h)"/><path d="m11.872 20.347-1.66-6.32a.554.554 0 0 0-.73-.38l-6.14 2.24c-.45.17-.49.79-.07 1.02l.928.49a.15.15 0 0 1 .063.202l-1.771 3.388c-.44.84-.4 1.84.11 2.64l2.2 3.48c.48.77 1.33 1.23 2.24 1.23-.49 0-.88-.39-.88-.88 0-.15.04-.29.1-.41l3.47-6.607a.15.15 0 0 1 .202-.064l1.148.601c.42.23.91-.17.79-.63Z" fill="url(#i)"/><path d="m11.872 20.347-1.66-6.32a.554.554 0 0 0-.73-.38l-6.14 2.24c-.45.17-.49.79-.07 1.02l.928.49a.15.15 0 0 1 .063.202l-1.771 3.388c-.44.84-.4 1.84.11 2.64l2.2 3.48c.48.77 1.33 1.23 2.24 1.23-.49 0-.88-.39-.88-.88 0-.15.04-.29.1-.41l3.47-6.607a.15.15 0 0 1 .202-.064l1.148.601c.42.23.91-.17.79-.63Z" fill="url(#j)"/></g><g filter="url(#k)"><path d="M29.882 20.827a.884.884 0 0 1-.79 1.29l-7.61-.04.01-1.45c0-.48-.57-.74-.93-.41l-4.85 4.38c-.24.22-.24.6 0 .82l4.82 4.41c.36.33.93.08.93-.41v-1.2l3.98.02c.94 0 1.82-.49 2.3-1.31l2.08-3.55c.46-.78.48-1.74.06-2.55Z" fill="url(#l)"/></g><g filter="url(#m)"><path d="m22.462 7.917 1.04-.6c.42-.24.93.12.83.58l-1.37 6.39c-.07.32-.4.51-.71.41l-6.23-1.97a.555.555 0 0 1-.11-1.01l1.25-.73-3.82-6.58a.922.922 0 0 0-.29-.3.887.887 0 0 0-1.21.28 2.64 2.64 0 0 1 2.23-1.23h4.11c.94 0 1.82.5 2.29 1.32l1.99 3.44Z" fill="url(#n)"/></g><defs><linearGradient id="b" x1="9.313" y1="25.72" x2="16.501" y2="27.72" gradientUnits="userSpaceOnUse"><stop stop-color="#549F8D"/><stop offset="1" stop-color="#306B72"/></linearGradient><linearGradient id="d" x1="28.34" y1="22.32" x2="24.578" y2="14.31" gradientUnits="userSpaceOnUse"><stop stop-color="#1E6C52"/><stop offset="1" stop-color="#318270"/></linearGradient><linearGradient id="f" x1="16.001" y1="6.219" x2="10.501" y2="11.407" gradientUnits="userSpaceOnUse"><stop offset=".215" stop-color="#2D5267"/><stop offset="1" stop-color="#2A6E67"/></linearGradient><linearGradient id="h" x1="10.152" y1="14.93" x2="4.62" y2="26.524" gradientUnits="userSpaceOnUse"><stop stop-color="#4EDF9F"/><stop offset="1" stop-color="#4BD3A1"/></linearGradient><linearGradient id="i" x1="4.62" y1="28.337" x2="7.629" y2="25.772" gradientUnits="userSpaceOnUse"><stop stop-color="#5BA48B"/><stop offset="1" stop-color="#44C89B" stop-opacity="0"/></linearGradient><linearGradient id="j" x1="11.767" y1="19.422" x2="11.136" y2="19.576" gradientUnits="userSpaceOnUse"><stop offset=".263" stop-color="#63F5AD"/><stop offset="1" stop-color="#63F5AD" stop-opacity="0"/></linearGradient><linearGradient id="l" x1="28.605" y1="25.551" x2="16.967" y2="25.551" gradientUnits="userSpaceOnUse"><stop stop-color="#53E2A9"/><stop offset="1" stop-color="#4FD7A5"/></linearGradient><linearGradient id="n" x1="22.861" y1="13.654" x2="16.939" y2="3.715" gradientUnits="userSpaceOnUse"><stop stop-color="#53E2A9"/><stop offset="1" stop-color="#46D791"/></linearGradient><filter id="a" x="5.572" y="21.927" width="9.48" height="6.65" filterUnits="userSpaceOnUse" color-interpolation-filters="sRGB"><feFlood flood-opacity="0" result="BackgroundImageFix"/><feBlend in="SourceGraphic" in2="BackgroundImageFix" result="shape"/><feColorMatrix in="SourceAlpha" values="0 0 0 0 0 0 0 0 0 0 0 0 0 0 0 0 0 0 127 0" result="hardAlpha"/><feOffset dx="-.25" dy=".25"/><feGaussianBlur stdDeviation=".25"/><feComposite in2="hardAlpha" operator="arithmetic" k2="-1" k3="1"/><feColorMatrix values="0 0 0 0 0.207843 0 0 0 0 0.541176 0 0 0 0 0.439216 0 0 0 1 0"/><feBlend in2="shape" result="effect1_innerShadow_18590_1900"/><feColorMatrix in="SourceAlpha" values="0 0 0 0 0 0 0 0 0 0 0 0 0 0 0 0 0 0 127 0" result="hardAlpha"/><feOffset dy="-.25"/><feGaussianBlur stdDeviation=".25"/><feComposite in2="hardAlpha" operator="arithmetic" k2="-1" k3="1"/><feColorMatrix values="0 0 0 0 0.290196 0 0 0 0 0.372549 0 0 0 0 0.556863 0 0 0 1 0"/><feBlend in2="effect1_innerShadow_18590_1900" result="effect2_innerShadow_18590_1900"/></filter><filter id="c" x="20.853" y="14.069" width="9.708" height="8.788" filterUnits="userSpaceOnUse" color-interpolation-filters="sRGB"><feFlood flood-opacity="0" result="BackgroundImageFix"/><feBlend in="SourceGraphic" in2="BackgroundImageFix" result="shape"/><feColorMatrix in="SourceAlpha" values="0 0 0 0 0 0 0 0 0 0 0 0 0 0 0 0 0 0 127 0" result="hardAlpha"/><feOffset dx="-.25"/><feGaussianBlur stdDeviation=".25"/><feComposite in2="hardAlpha" operator="arithmetic" k2="-1" k3="1"/><feColorMatrix values="0 0 0 0 0.333333 0 0 0 0 0.65098 0 0 0 0 0.545098 0 0 0 1 0"/><feBlend in2="shape" result="effect1_innerShadow_18590_1900"/><feColorMatrix in="SourceAlpha" values="0 0 0 0 0 0 0 0 0 0 0 0 0 0 0 0 0 0 127 0" result="hardAlpha"/><feOffset dx=".5"/><feGaussianBlur stdDeviation=".25"/><feComposite in2="hardAlpha" operator="arithmetic" k2="-1" k3="1"/><feColorMatrix values="0 0 0 0 0.219608 0 0 0 0 0.376471 0 0 0 0 0.388235 0 0 0 1 0"/><feBlend in2="effect1_innerShadow_18590_1900" result="effect2_innerShadow_18590_1900"/></filter><filter id="e" x="7.97" y="3.467" width="8.832" height="10.582" filterUnits="userSpaceOnUse" color-interpolation-filters="sRGB"><feFlood flood-opacity="0" result="BackgroundImageFix"/><feBlend in="SourceGraphic" in2="BackgroundImageFix" result="shape"/><feColorMatrix in="SourceAlpha" values="0 0 0 0 0 0 0 0 0 0 0 0 0 0 0 0 0 0 127 0" result="hardAlpha"/><feOffset dx=".25"/><feGaussianBlur stdDeviation=".25"/><feComposite in2="hardAlpha" operator="arithmetic" k2="-1" k3="1"/><feColorMatrix values="0 0 0 0 0.152941 0 0 0 0 0.4 0 0 0 0 0.337255 0 0 0 1 0"/><feBlend in2="shape" result="effect1_innerShadow_18590_1900"/><feColorMatrix in="SourceAlpha" values="0 0 0 0 0 0 0 0 0 0 0 0 0 0 0 0 0 0 127 0" result="hardAlpha"/><feOffset dy="-.25"/><feGaussianBlur stdDeviation=".25"/><feComposite in2="hardAlpha" operator="arithmetic" k2="-1" k3="1"/><feColorMatrix values="0 0 0 0 0.290196 0 0 0 0 0.352941 0 0 0 0 0.478431 0 0 0 1 0"/><feBlend in2="effect1_innerShadow_18590_1900" result="effect2_innerShadow_18590_1900"/></filter><filter id="g" x="2.188" y="13.614" width="9.952" height="14.723" filterUnits="userSpaceOnUse" color-interpolation-filters="sRGB"><feFlood flood-opacity="0" result="BackgroundImageFix"/><feBlend in="SourceGraphic" in2="BackgroundImageFix" result="shape"/><feColorMatrix in="SourceAlpha" values="0 0 0 0 0 0 0 0 0 0 0 0 0 0 0 0 0 0 127 0" result="hardAlpha"/><feOffset dx=".25"/><feGaussianBlur stdDeviation=".25"/><feComposite in2="hardAlpha" operator="arithmetic" k2="-1" k3="1"/><feColorMatrix values="0 0 0 0 0.270588 0 0 0 0 0.686275 0 0 0 0 0.435294 0 0 0 1 0"/><feBlend in2="shape" result="effect1_innerShadow_18590_1900"/></filter><filter id="k" x="15.532" y="19.819" width="14.651" height="10.308" filterUnits="userSpaceOnUse" color-interpolation-filters="sRGB"><feFlood flood-opacity="0" result="BackgroundImageFix"/><feBlend in="SourceGraphic" in2="BackgroundImageFix" result="shape"/><feColorMatrix in="SourceAlpha" values="0 0 0 0 0 0 0 0 0 0 0 0 0 0 0 0 0 0 127 0" result="hardAlpha"/><feOffset dy="-.25"/><feGaussianBlur stdDeviation=".25"/><feComposite in2="hardAlpha" operator="arithmetic" k2="-1" k3="1"/><feColorMatrix values="0 0 0 0 0.376471 0 0 0 0 0.67451 0 0 0 0 0.678431 0 0 0 1 0"/><feBlend in2="shape" result="effect1_innerShadow_18590_1900"/><feColorMatrix in="SourceAlpha" values="0 0 0 0 0 0 0 0 0 0 0 0 0 0 0 0 0 0 127 0" result="hardAlpha"/><feOffset dy=".15"/><feGaussianBlur stdDeviation=".25"/><feComposite in2="hardAlpha" operator="arithmetic" k2="-1" k3="1"/><feColorMatrix values="0 0 0 0 0.25098 0 0 0 0 0.733333 0 0 0 0 0.458824 0 0 0 1 0"/><feBlend in2="effect1_innerShadow_18590_1900" result="effect2_innerShadow_18590_1900"/></filter><filter id="m" x="11.842" y="2.907" width="12.753" height="11.967" filterUnits="userSpaceOnUse" color-interpolation-filters="sRGB"><feFlood flood-opacity="0" result="BackgroundImageFix"/><feBlend in="SourceGraphic" in2="BackgroundImageFix" result="shape"/><feColorMatrix in="SourceAlpha" values="0 0 0 0 0 0 0 0 0 0 0 0 0 0 0 0 0 0 127 0" result="hardAlpha"/><feOffset dx=".25" dy="-.25"/><feGaussianBlur stdDeviation=".375"/><feComposite in2="hardAlpha" operator="arithmetic" k2="-1" k3="1"/><feColorMatrix values="0 0 0 0 0.301961 0 0 0 0 0.705882 0 0 0 0 0.454902 0 0 0 1 0"/><feBlend in2="shape" result="effect1_innerShadow_18590_1900"/><feColorMatrix in="SourceAlpha" values="0 0 0 0 0 0 0 0 0 0 0 0 0 0 0 0 0 0 127 0" result="hardAlpha"/><feOffset dy=".15"/><feGaussianBlur stdDeviation=".25"/><feComposite in2="hardAlpha" operator="arithmetic" k2="-1" k3="1"/><feColorMatrix values="0 0 0 0 0.407843 0 0 0 0 0.94902 0 0 0 0 0.654902 0 0 0 1 0"/><feBlend in2="effect1_innerShadow_18590_1900" result="effect2_innerShadow_18590_1900"/></filter></defs></svg>
